assets/1. 1-F/Baggage claim/Color/Baggage.Claim-color.svg

<svg width="100%" height="100%" viewBox="0 0 32 32" fill="none" xmlns="http://www.w3.org/2000/svg">
<g filter="url(#filter0_ii_18590_504)">
<rect x="1.66785" y="1.8125" width="27.875" height="27.875" rx="3.6" fill="url(#paint0_linear_18590_504)"/>
<rect x="1.66785" y="1.8125" width="27.875" height="27.875" rx="3.6" fill="url(#paint1_radial_18590_504)"/>
</g>
<g filter="url(#filter1_f_18590_504)">
<path d="M27.8553 4.3125V27.1875" stroke="url(#paint2_linear_18590_504)" stroke-width="1.5" stroke-linecap="round"/>
</g>
<g filter="url(#filter2_f_18590_504)">
<path d="M5.13171 3.625H26.913" stroke="url(#paint3_linear_18590_504)" stroke-width="1.5" stroke-linecap="round"/>
</g>
<g filter="url(#filter3_f_18590_504)">
<path d="M13.1741 9.25C13.2329 9.25 13.2788 9.19956 13.2759 9.14086C13.2735 9.0942 13.2723 9.04724 13.2723 9C13.2723 7.48122 14.5036 6.25 16.0223 6.25C17.5411 6.25 18.7723 7.48122 18.7723 9C18.7723 9.04724 18.7711 9.0942 18.7688 9.14086C18.7658 9.19956 18.8118 9.25 18.8705 9.25H20.7723C20.9104 9.25 21.0223 9.36193 21.0223 9.5V21C21.0223 21.1381 20.9104 21.25 20.7723 21.25H11.2723C11.1343 21.25 11.0223 21.1381 11.0223 21V9.5C11.0223 9.36193 11.1343 9.25 11.2723 9.25H13.1741ZM14.2799 9.16389C14.2845 9.21344 14.327 9.25 14.3768 9.25H17.6679C17.7177 9.25 17.7602 9.21344 17.7648 9.16389C17.7698 9.10993 17.7723 9.05527 17.7723 9C17.7723 8.0335 16.9888 7.25 16.0223 7.25C15.0558 7.25 14.2723 8.0335 14.2723 9C14.2723 9.05527 14.2749 9.10993 14.2799 9.16389Z" fill="#579FFF"/>
<path d="M8.02234 9.25C7.47005 9.25 7.02234 9.69771 7.02234 10.25V20.25C7.02234 20.8023 7.47005 21.25 8.02234 21.25H9.77234C9.91041 21.25 10.0223 21.1381 10.0223 21V9.5C10.0223 9.36193 9.91041 9.25 9.77234 9.25H8.02234Z" fill="#579FFF"/>
<path d="M22.0223 21C22.0223 21.1381 22.1343 21.25 22.2723 21.25H24.0223C24.5746 21.25 25.0223 20.8023 25.0223 20.25V10.25C25.0223 9.69772 24.5746 9.25 24.0223 9.25H22.2723C22.1343 9.25 22.0223 9.36193 22.0223 9.5V21Z" fill="#579FFF"/>
<path d="M26.0223 23.75C26.0223 23.4739 25.7985 23.25 25.5223 23.25H6.52234C6.2462 23.25 6.02234 23.4739 6.02234 23.75C6.02234 24.0261 6.2462 24.25 6.52234 24.25H8.92234C8.97757 24.25 9.02182 24.2949 9.02733 24.3498C9.05026 24.5784 9.15138 24.7933 9.31523 24.9571C9.50277 25.1446 9.75712 25.25 10.0223 25.25C10.2876 25.25 10.5419 25.1446 10.7294 24.9571C10.8933 24.7933 10.9944 24.5784 11.0173 24.3498C11.0229 24.2949 11.0671 24.25 11.1223 24.25H12.9223C12.9776 24.25 13.0218 24.2949 13.0273 24.3498C13.0503 24.5784 13.1514 24.7933 13.3152 24.9571C13.5028 25.1446 13.7571 25.25 14.0223 25.25C14.2876 25.25 14.5419 25.1446 14.7294 24.9571C14.8933 24.7933 14.9944 24.5784 15.0173 24.3498C15.0229 24.2949 15.0671 24.25 15.1223 24.25H16.9223C16.9776 24.25 17.0218 24.2949 17.0273 24.3498C17.0503 24.5784 17.1514 24.7933 17.3152 24.9571C17.5028 25.1446 17.7571 25.25 18.0223 25.25C18.2876 25.25 18.5419 25.1446 18.7294 24.9571C18.8933 24.7933 18.9944 24.5784 19.0173 24.3498C19.0229 24.2949 19.0671 24.25 19.1223 24.25H20.9223C20.9776 24.25 21.0218 24.2949 21.0273 24.3498C21.0503 24.5784 21.1514 24.7933 21.3152 24.9571C21.5028 25.1446 21.7571 25.25 22.0223 25.25C22.2876 25.25 22.5419 25.1446 22.7294 24.9571C22.8933 24.7933 22.9944 24.5784 23.0173 24.3498C23.0229 24.2949 23.0671 24.25 23.1223 24.25H25.5223C25.7985 24.25 26.0223 24.0261 26.0223 23.75Z" fill="#579FFF"/>
</g>
<g filter="url(#filter4_ii_18590_504)">
<path d="M13.1741 9.25C13.2329 9.25 13.2788 9.19956 13.2759 9.14086C13.2735 9.0942 13.2723 9.04724 13.2723 9C13.2723 7.48122 14.5036 6.25 16.0223 6.25C17.5411 6.25 18.7723 7.48122 18.7723 9C18.7723 9.04724 18.7711 9.0942 18.7688 9.14086C18.7658 9.19956 18.8118 9.25 18.8705 9.25H20.7723C20.9104 9.25 21.0223 9.36193 21.0223 9.5V21C21.0223 21.1381 20.9104 21.25 20.7723 21.25H11.2723C11.1343 21.25 11.0223 21.1381 11.0223 21V9.5C11.0223 9.36193 11.1343 9.25 11.2723 9.25H13.1741ZM14.2799 9.16389C14.2845 9.21344 14.327 9.25 14.3768 9.25H17.6679C17.7177 9.25 17.7602 9.21344 17.7648 9.16389C17.7698 9.10993 17.7723 9.05527 17.7723 9C17.7723 8.0335 16.9888 7.25 16.0223 7.25C15.0558 7.25 14.2723 8.0335 14.2723 9C14.2723 9.05527 14.2749 9.10993 14.2799 9.16389Z" fill="#FCF2FF"/>
<path d="M8.02234 9.25C7.47005 9.25 7.02234 9.69771 7.02234 10.25V20.25C7.02234 20.8023 7.47005 21.25 8.02234 21.25H9.77234C9.91041 21.25 10.0223 21.1381 10.0223 21V9.5C10.0223 9.36193 9.91041 9.25 9.77234 9.25H8.02234Z" fill="#FCF2FF"/>
<path d="M22.0223 21C22.0223 21.1381 22.1343 21.25 22.2723 21.25H24.0223C24.5746 21.25 25.0223 20.8023 25.0223 20.25V10.25C25.0223 9.69772 24.5746 9.25 24.0223 9.25H22.2723C22.1343 9.25 22.0223 9.36193 22.0223 9.5V21Z" fill="#FCF2FF"/>
<path d="M26.0223 23.75C26.0223 23.4739 25.7985 23.25 25.5223 23.25H6.52234C6.2462 23.25 6.02234 23.4739 6.02234 23.75C6.02234 24.0261 6.2462 24.25 6.52234 24.25H8.92234C8.97757 24.25 9.02182 24.2949 9.02733 24.3498C9.05026 24.5784 9.15138 24.7933 9.31523 24.9571C9.50277 25.1446 9.75712 25.25 10.0223 25.25C10.2876 25.25 10.5419 25.1446 10.7294 24.9571C10.8933 24.7933 10.9944 24.5784 11.0173 24.3498C11.0229 24.2949 11.0671 24.25 11.1223 24.25H12.9223C12.9776 24.25 13.0218 24.2949 13.0273 24.3498C13.0503 24.5784 13.1514 24.7933 13.3152 24.9571C13.5028 25.1446 13.7571 25.25 14.0223 25.25C14.2876 25.25 14.5419 25.1446 14.7294 24.9571C14.8933 24.7933 14.9944 24.5784 15.0173 24.3498C15.0229 24.2949 15.0671 24.25 15.1223 24.25H16.9223C16.9776 24.25 17.0218 24.2949 17.0273 24.3498C17.0503 24.5784 17.1514 24.7933 17.3152 24.9571C17.5028 25.1446 17.7571 25.25 18.0223 25.25C18.2876 25.25 18.5419 25.1446 18.7294 24.9571C18.8933 24.7933 18.9944 24.5784 19.0173 24.3498C19.0229 24.2949 19.0671 24.25 19.1223 24.25H20.9223C20.9776 24.25 21.0218 24.2949 21.0273 24.3498C21.0503 24.5784 21.1514 24.7933 21.3152 24.9571C21.5028 25.1446 21.7571 25.25 22.0223 25.25C22.2876 25.25 22.5419 25.1446 22.7294 24.9571C22.8933 24.7933 22.9944 24.5784 23.0173 24.3498C23.0229 24.2949 23.0671 24.25 23.1223 24.25H25.5223C25.7985 24.25 26.0223 24.0261 26.0223 23.75Z" fill="#FCF2FF"/>
</g>
<defs>
<filter id="filter0_ii_18590_504" x="1.66785" y="0.8125" width="28.875" height="28.875" filterUnits="userSpaceOnUse" color-interpolation-filters="sRGB">
<feFlood flood-opacity="0" result="BackgroundImageFix"/>
<feBlend mode="normal" in="SourceGraphic" in2="BackgroundImageFix" result="shape"/>
<feColorMatrix in="SourceAlpha" type="matrix" values="0 0 0 0 0 0 0 0 0 0 0 0 0 0 0 0 0 0 127 0" result="hardAlpha"/>
<feOffset dx="1" dy="-1"/>
<feGaussianBlur stdDeviation="1.5"/>
<feComposite in2="hardAlpha" operator="arithmetic" k2="-1" k3="1"/>
<feColorMatrix type="matrix" values="0 0 0 0 0.188235 0 0 0 0 0.470588 0 0 0 0 0.843137 0 0 0 1 0"/>
<feBlend mode="normal" in2="shape" result="effect1_innerShadow_18590_504"/>
<feColorMatrix in="SourceAlpha" type="matrix" values="0 0 0 0 0 0 0 0 0 0 0 0 0 0 0 0 0 0 127 0" result="hardAlpha"/>
<feOffset dy="-1"/>
<feGaussianBlur stdDeviation="1.5"/>
<feComposite in2="hardAlpha" operator="arithmetic" k2="-1" k3="1"/>
<feColorMatrix type="matrix" values="0 0 0 0 0.27451 0 0 0 0 0.34902 0 0 0 0 0.8 0 0 0 1 0"/>
<feBlend mode="normal" in2="effect1_innerShadow_18590_504" result="effect2_innerShadow_18590_504"/>
</filter>
<filter id="filter1_f_18590_504" x="25.1053" y="1.5625" width="5.5" height="28.375" filterUnits="userSpaceOnUse" color-interpolation-filters="sRGB">
<feFlood flood-opacity="0" result="BackgroundImageFix"/>
<feBlend mode="normal" in="SourceGraphic" in2="BackgroundImageFix" result="shape"/>
<feGaussianBlur stdDeviation="1" result="effect1_foregroundBlur_18590_504"/>
</filter>
<filter id="filter2_f_18590_504" x="2.38171" y="0.875" width="27.2812" height="5.5" filterUnits="userSpaceOnUse" color-interpolation-filters="sRGB">
<feFlood flood-opacity="0" result="BackgroundImageFix"/>
<feBlend mode="normal" in="SourceGraphic" in2="BackgroundImageFix" result="shape"/>
<feGaussianBlur stdDeviation="1" result="effect1_foregroundBlur_18590_504"/>
</filter>
<filter id="filter3_f_18590_504" x="5.02234" y="5.25" width="22" height="21" filterUnits="userSpaceOnUse" color-interpolation-filters="sRGB">
<feFlood flood-opacity="0" result="BackgroundImageFix"/>
<feBlend mode="normal" in="SourceGraphic" in2="BackgroundImageFix" result="shape"/>
<feGaussianBlur stdDeviation="0.5" result="effect1_foregroundBlur_18590_504"/>
</filter>
<filter id="filter4_ii_18590_504" x="5.32234" y="5.85" width="21.1" height="20.1" filterUnits="userSpaceOnUse" color-interpolation-filters="sRGB">
<feFlood flood-opacity="0" result="BackgroundImageFix"/>
<feBlend mode="normal" in="SourceGraphic" in2="BackgroundImageFix" result="shape"/>
<feColorMatrix in="SourceAlpha" type="matrix" values="0 0 0 0 0 0 0 0 0 0 0 0 0 0 0 0 0 0 127 0" result="hardAlpha"/>
<feOffset dx="-0.7" dy="0.7"/>
<feGaussianBlur stdDeviation="0.5"/>
<feComposite in2="hardAlpha" operator="arithmetic" k2="-1" k3="1"/>
<feColorMatrix type="matrix" values="0 0 0 0 0.901961 0 0 0 0 0.854902 0 0 0 0 0.980392 0 0 0 1 0"/>
<feBlend mode="normal" in2="shape" result="effect1_innerShadow_18590_504"/>
<feColorMatrix in="SourceAlpha" type="matrix" values="0 0 0 0 0 0 0 0 0 0 0 0 0 0 0 0 0 0 127 0" result="hardAlpha"/>
<feOffset dx="0.4" dy="-0.4"/>
<feGaussianBlur stdDeviation="0.2"/>
<feComposite in2="hardAlpha" operator="arithmetic" k2="-1" k3="1"/>
<feColorMatrix type="matrix" values="0 0 0 0 1 0 0 0 0 0.988235 0 0 0 0 1 0 0 0 1 0"/>
<feBlend mode="normal" in2="effect1_innerShadow_18590_504" result="effect2_innerShadow_18590_504"/>
</filter>
<linearGradient id="paint0_linear_18590_504" x1="15.6053" y1="5.38701" x2="15.6053" y2="38.6397" gradientUnits="userSpaceOnUse">
<stop stop-color="#5CB7FF"/>
<stop offset="1" stop-color="#4878DD"/>
</linearGradient>
<radialGradient id="paint1_radial_18590_504" cx="0" cy="0" r="1" gradientUnits="userSpaceOnUse" gradientTransform="translate(27.3241 3.90625) rotate(136.771) scale(2.14444 2.50466)">
<stop stop-color="#7BD7FF"/>
<stop offset="1" stop-color="#7BD7FF" stop-opacity="0"/>
</radialGradient>
<linearGradient id="paint2_linear_18590_504" x1="28.3553" y1="4.3125" x2="28.3553" y2="27.1875" gradientUnits="userSpaceOnUse">
<stop stop-color="#7FD9FF"/>
<stop offset="1" stop-color="#639DF4"/>
</linearGradient>
<linearGradient id="paint3_linear_18590_504" x1="28.0692" y1="3.87502" x2="2.53796" y2="3.87502" gradientUnits="userSpaceOnUse">
<stop stop-color="#7DD8FF"/>
<stop offset="1" stop-color="#5DB6FF"/>
</linearGradient>
</defs>
</svg>

<svg width="100%" height="100%" viewBox="0 0 32 32" xmlns="http://www.w3.org/2000/svg"><g filter="url(#a)"><rect width="27.875" height="27.875" x="1.668" y="1.813" fill="url(#b)" rx="3.6"/><rect width="27.875" height="27.875" x="1.668" y="1.813" fill="url(#c)" rx="3.6"/></g><g filter="url(#d)"><path stroke="url(#e)" stroke-linecap="round" stroke-width="1.5" d="M27.855 4.313v22.875"/></g><g filter="url(#f)"><path stroke="url(#g)" stroke-linecap="round" stroke-width="1.5" d="M5.132 3.625h21.781"/></g><g fill="#579FFF" filter="url(#h)"><path d="M13.174 9.25c.059 0 .105-.05.102-.11L13.272 9a2.75 2.75 0 1 1 5.497.14.103.103 0 0 0 .102.11h1.901a.25.25 0 0 1 .25.25V21a.25.25 0 0 1-.25.25h-9.5a.25.25 0 0 1-.25-.25V9.5a.25.25 0 0 1 .25-.25zm1.106-.086c.005.05.047.086.097.086h3.29c.05 0 .093-.037.098-.086q.007-.081.007-.164a1.75 1.75 0 1 0-3.492.164M8.022 9.25a1 1 0 0 0-1 1v10a1 1 0 0 0 1 1h1.75a.25.25 0 0 0 .25-.25V9.5a.25.25 0 0 0-.25-.25zM22.022 21c0 .138.112.25.25.25h1.75a1 1 0 0 0 1-1v-10a1 1 0 0 0-1-1h-1.75a.25.25 0 0 0-.25.25zM26.022 23.75a.5.5 0 0 0-.5-.5h-19a.5.5 0 0 0 0 1h2.4c.056 0 .1.045.105.1a1 1 0 0 0 1.99 0c.006-.055.05-.1.105-.1h1.8c.056 0 .1.045.105.1a1 1 0 0 0 1.99 0c.006-.055.05-.1.105-.1h1.8c.056 0 .1.045.105.1a1 1 0 0 0 1.99 0c.006-.055.05-.1.105-.1h1.8c.056 0 .1.045.105.1a1 1 0 0 0 1.99 0c.006-.055.05-.1.105-.1h2.4a.5.5 0 0 0 .5-.5"/></g><g fill="#FCF2FF" filter="url(#i)"><path d="M13.174 9.25c.059 0 .105-.05.102-.11L13.272 9a2.75 2.75 0 1 1 5.497.14.103.103 0 0 0 .102.11h1.901a.25.25 0 0 1 .25.25V21a.25.25 0 0 1-.25.25h-9.5a.25.25 0 0 1-.25-.25V9.5a.25.25 0 0 1 .25-.25zm1.106-.086c.005.05.047.086.097.086h3.29c.05 0 .093-.037.098-.086q.007-.081.007-.164a1.75 1.75 0 1 0-3.492.164M8.022 9.25a1 1 0 0 0-1 1v10a1 1 0 0 0 1 1h1.75a.25.25 0 0 0 .25-.25V9.5a.25.25 0 0 0-.25-.25zM22.022 21c0 .138.112.25.25.25h1.75a1 1 0 0 0 1-1v-10a1 1 0 0 0-1-1h-1.75a.25.25 0 0 0-.25.25zM26.022 23.75a.5.5 0 0 0-.5-.5h-19a.5.5 0 0 0 0 1h2.4c.056 0 .1.045.105.1a1 1 0 0 0 1.99 0c.006-.055.05-.1.105-.1h1.8c.056 0 .1.045.105.1a1 1 0 0 0 1.99 0c.006-.055.05-.1.105-.1h1.8c.056 0 .1.045.105.1a1 1 0 0 0 1.99 0c.006-.055.05-.1.105-.1h1.8c.056 0 .1.045.105.1a1 1 0 0 0 1.99 0c.006-.055.05-.1.105-.1h2.4a.5.5 0 0 0 .5-.5"/></g><defs><filter id="a" width="28.875" height="28.875" x="1.668" y=".813" color-interpolation-filters="sRGB" filterUnits="userSpaceOnUse"><feFlood flood-opacity="0" result="BackgroundImageFix"/><feBlend in="SourceGraphic" in2="BackgroundImageFix" result="shape"/><feColorMatrix in="SourceAlpha" result="hardAlpha" values="0 0 0 0 0 0 0 0 0 0 0 0 0 0 0 0 0 0 127 0"/><feOffset dx="1" dy="-1"/><feGaussianBlur stdDeviation="1.5"/><feComposite in2="hardAlpha" k2="-1" k3="1" operator="arithmetic"/><feColorMatrix values="0 0 0 0 0.188235 0 0 0 0 0.470588 0 0 0 0 0.843137 0 0 0 1 0"/><feBlend in2="shape" result="effect1_innerShadow_18590_504"/><feColorMatrix in="SourceAlpha" result="hardAlpha" values="0 0 0 0 0 0 0 0 0 0 0 0 0 0 0 0 0 0 127 0"/><feOffset dy="-1"/><feGaussianBlur stdDeviation="1.5"/><feComposite in2="hardAlpha" k2="-1" k3="1" operator="arithmetic"/><feColorMatrix values="0 0 0 0 0.27451 0 0 0 0 0.34902 0 0 0 0 0.8 0 0 0 1 0"/><feBlend in2="effect1_innerShadow_18590_504" result="effect2_innerShadow_18590_504"/></filter><filter id="d" width="5.5" height="28.375" x="25.105" y="1.563" color-interpolation-filters="sRGB" filterUnits="userSpaceOnUse"><feFlood flood-opacity="0" result="BackgroundImageFix"/><feBlend in="SourceGraphic" in2="BackgroundImageFix" result="shape"/><feGaussianBlur result="effect1_foregroundBlur_18590_504" stdDeviation="1"/></filter><filter id="f" width="27.281" height="5.5" x="2.382" y=".875" color-interpolation-filters="sRGB" filterUnits="userSpaceOnUse"><feFlood flood-opacity="0" result="BackgroundImageFix"/><feBlend in="SourceGraphic" in2="BackgroundImageFix" result="shape"/><feGaussianBlur result="effect1_foregroundBlur_18590_504" stdDeviation="1"/></filter><filter id="h" width="22" height="21" x="5.022" y="5.25" color-interpolation-filters="sRGB" filterUnits="userSpaceOnUse"><feFlood flood-opacity="0" result="BackgroundImageFix"/><feBlend in="SourceGraphic" in2="BackgroundImageFix" result="shape"/><feGaussianBlur result="effect1_foregroundBlur_18590_504" stdDeviation=".5"/></filter><filter id="i" width="21.1" height="20.1" x="5.322" y="5.85" color-interpolation-filters="sRGB" filterUnits="userSpaceOnUse"><feFlood flood-opacity="0" result="BackgroundImageFix"/><feBlend in="SourceGraphic" in2="BackgroundImageFix" result="shape"/><feColorMatrix in="SourceAlpha" result="hardAlpha" values="0 0 0 0 0 0 0 0 0 0 0 0 0 0 0 0 0 0 127 0"/><feOffset dx="-.7" dy=".7"/><feGaussianBlur stdDeviation=".5"/><feComposite in2="hardAlpha" k2="-1" k3="1" operator="arithmetic"/><feColorMatrix values="0 0 0 0 0.901961 0 0 0 0 0.854902 0 0 0 0 0.980392 0 0 0 1 0"/><feBlend in2="shape" result="effect1_innerShadow_18590_504"/><feColorMatrix in="SourceAlpha" result="hardAlpha" values="0 0 0 0 0 0 0 0 0 0 0 0 0 0 0 0 0 0 127 0"/><feOffset dx=".4" dy="-.4"/><feGaussianBlur stdDeviation=".2"/><feComposite in2="hardAlpha" k2="-1" k3="1" operator="arithmetic"/><feColorMatrix values="0 0 0 0 1 0 0 0 0 0.988235 0 0 0 0 1 0 0 0 1 0"/><feBlend in2="effect1_innerShadow_18590_504" result="effect2_innerShadow_18590_504"/></filter><linearGradient id="b" x1="15.605" x2="15.605" y1="5.387" y2="38.64" gradientUnits="userSpaceOnUse"><stop stop-color="#5CB7FF"/><stop offset="1" stop-color="#4878DD"/></linearGradient><linearGradient id="e" x1="28.355" x2="28.355" y1="4.313" y2="27.188" gradientUnits="userSpaceOnUse"><stop stop-color="#7FD9FF"/><stop offset="1" stop-color="#639DF4"/></linearGradient><linearGradient id="g" x1="28.069" x2="2.538" y1="3.875" y2="3.875" gradientUnits="userSpaceOnUse"><stop stop-color="#7DD8FF"/><stop offset="1" stop-color="#5DB6FF"/></linearGradient><radialGradient id="c" cx="0" cy="0" r="1" gradientTransform="matrix(-1.56249 1.46876 -1.71548 -1.82495 27.324 3.906)" gradientUnits="userSpaceOnUse"><stop stop-color="#7BD7FF"/><stop offset="1" stop-color="#7BD7FF" stop-opacity="0"/></radialGradient></defs></svg>
